icons/svg/16x16/time/outline.svg

<svg xmlns="http://www.w3.org/2000/svg" width="16" height="16" viewBox="0 0 16 16">
  <path fill-rule="evenodd" d="M9.7076,10.293 C10.0986,10.684 10.0986,11.316 9.7076,11.707 C9.5126,11.902 9.2566,12 9.0006,12 C8.7446,12 8.4886,11.902 8.2936,11.707 L6.2936,9.707 C6.0446,9.459 5.9456,9.099 6.0306,8.758 L7.0306,4.758 C7.1646,4.221 7.7086,3.897 8.2436,4.03 C8.7786,4.164 9.1046,4.707 8.9706,5.242 L8.1076,8.693 L9.7076,10.293 Z M12.6546,11.249 C12.5026,11.951 11.9516,12.503 11.2496,12.654 C10.1886,12.884 9.0956,13 7.9996,13 C6.9046,13 5.8116,12.884 4.7506,12.654 C4.0486,12.503 3.4976,11.951 3.3456,11.249 C3.1166,10.189 2.9996,9.096 2.9996,8 C2.9996,6.904 3.1166,5.811 3.3456,4.75 C3.4976,4.049 4.0486,3.497 4.7506,3.346 C5.8116,3.116 6.9046,3 7.9996,3 C9.0966,3 10.1896,3.116 11.2496,3.346 C11.9516,3.497 12.5026,4.049 12.6546,4.751 C12.8836,5.812 12.9996,6.904 12.9996,8 C12.9996,9.096 12.8836,10.189 12.6546,11.249 L12.6546,11.249 Z M14.6096,4.328 C14.2906,2.856 13.1436,1.709 11.6716,1.391 C10.4886,1.135 9.2596,1 7.9996,1 C6.7396,1 5.5116,1.135 4.3286,1.391 C2.8556,1.708 1.7086,2.856 1.3906,4.328 C1.1346,5.512 0.9996,6.74 0.9996,8 C0.9996,9.26 1.1346,10.488 1.3906,11.672 C1.7086,13.144 2.8556,14.291 4.3276,14.609 C5.5116,14.865 6.7396,15 7.9996,15 C9.2596,15 10.4886,14.865 11.6716,14.609 C13.1436,14.291 14.2906,13.144 14.6096,11.672 C14.8656,10.488 14.9996,9.26 14.9996,8 C14.9996,6.74 14.8656,5.512 14.6096,4.328 L14.6096,4.328 Z"/>
</svg>

<svg width="16" height="16" fill="none" xmlns="http://www.w3.org/2000/svg">
  <path fill-rule="evenodd" clip-rule="evenodd" d="M9.708 10.293a.999.999 0 11-1.414 1.414l-2-2a.997.997 0 01-.263-.949l1-4a1 1 0 011.94.484l-.863 3.451 1.6 1.6zm2.947.956a1.836 1.836 0 01-1.405 1.405C10.189 12.884 9.096 13 8 13c-1.095 0-2.188-.116-3.25-.346a1.836 1.836 0 01-1.404-1.405 15.413 15.413 0 010-6.499A1.837 1.837 0 014.75 3.346 15.362 15.362 0 018 3c1.097 0 2.19.116 3.25.346a1.836 1.836 0 011.405 1.405 15.42 15.42 0 010 6.498zm1.955-6.921a3.832 3.832 0 00-2.938-2.937A17.35 17.35 0 008 1c-1.26 0-2.488.135-3.671.391A3.828 3.828 0 001.39 4.328 17.357 17.357 0 001 8c0 1.26.135 2.488.39 3.672a3.83 3.83 0 002.938 2.937C5.512 14.865 6.74 15 8 15c1.26 0 2.489-.135 3.672-.391a3.832 3.832 0 002.938-2.937C14.866 10.488 15 9.26 15 8c0-1.26-.134-2.488-.39-3.672z" fill="#000"/>
</svg>
